X:235
T:Prince Albert Hornpipe
R:Hornpipe
M:2/4
L:1/16
K:D
fg|afdf ecAc|dcdB A2FG|Adcd Be^de|c2A2 A2fg|
afdf ecAc|dcdB A2dc|Bcde (3fga ec|d2f2 d2:|
|:cd|efge cABc|dcde f2ef|gaba gfed|c2e2 e2fg|
afdf ecAc|dcdB A2dc|Bcde fdec|d2f2 d2:|
